X:1
T:Brondesbury, 10.10.12.10
T:Brondesbury, 10.10.12.10
T:Anonymous, 1893
T:Public Domain Courtesy of the Cyber Hymnal™
C:Anonymous, 1893
Z:Public Domain
Z:Courtesy of the Cyber Hymnal™
%%score ( 1 2 ) ( 3 4 )
L:1/8
Q:1/4=110
M:4/4
K:F
V:1 treble 
V:2 treble 
V:3 bass 
V:4 bass 
V:1
 [FA]4 [FA]3 [EG] | [EG]2 F2 F4 | [DF]4 [DF]3 [DF] | [CA]8 | [Fc]4 [Ec]3 [EB] | [FB]2 [CA]2 [CA]4 | %6
 [^CE]4 [=B,E]3 [B,E] | [^CA]8 | [Dd]4 [Ad]3 [Ac] | [Ac]2 [GB]2 [GB]4 | [Bd]2 [Bd]2 [Ac]3 [GB] | %11
 [GB]2 [FA]2 [FA]4 | [Ff]4 [Fe]3 [Fd] | [Fc]2 [EA]2 (F2 [GB]2) | [FA]4 [EG]3 F | F8 |] %16
V:2
 x8 | x2 F2 F4 | x8 | x8 | x8 | x8 | x8 | x8 | x8 | x8 | x8 | x8 | x8 | x4 F2 x2 | x7 F | F8 |] %16
V:3
 [F,C]4 [C,C]3 [C,B,] | [D,B,]2 [D,A,]2 [D,A,]4 | [B,,B,]4 [B,,F,]3 [B,,F,] | F,8 | %4
 [A,C]4 [G,C]3 [G,C] | [F,C]2 [F,C]2 [F,A,]4 | [E,A,]4 [E,^G,]3 [E,G,] | [A,,A,]8 | %8
 [^F,A,]4 [F,D]3 [F,D] | [G,D]2 [G,D]2 [G,D]4 | [E,C]2 [E,C]2 [E,C]3 [E,C] | [F,C]2 [F,C]2 [F,C]4 | %12
 [D,F,]4 [C,A,]3 [B,,B,] | [A,,C]2 [C,C]2 ([D,A,]2 [B,,D]2) | [C,C]4 [C,B,]3 [F,A,] | [F,A,]8 |] %16
V:4
 x8 | x8 | x8 | F,8 | x8 | x8 | x8 | x8 | x8 | x8 | x8 | x8 | x8 | x8 | x8 | x8 |] %16

